coreui/free/cil-basketball.svg

<svg xmlns="http://www.w3.org/2000/svg" viewBox="0 0 512 512">
  <path fill="var(--ci-primary-color, currentColor)" d="M256,16A240,240,0,0,0,86.294,425.706,240,240,0,0,0,425.706,86.294,238.432,238.432,0,0,0,256,16ZM107.761,110.25q4.21,5.825,8.145,12.466c18.663,31.593,29.823,72.765,31.985,117.284H48.609A207.386,207.386,0,0,1,107.761,110.25Zm0,291.5A207.386,207.386,0,0,1,48.609,272h99.282c-2.162,44.519-13.322,85.691-31.985,117.284Q111.981,395.93,107.761,401.75ZM240,463.391a206.866,206.866,0,0,1-108.049-40.532,190.612,190.612,0,0,0,11.507-17.3c21.483-36.368,34.233-83.3,36.471-133.559H240ZM240,240H179.929c-2.238-50.257-14.988-97.191-36.471-133.559a190.612,190.612,0,0,0-11.507-17.3A206.866,206.866,0,0,1,240,48.609ZM272,48.609A206.866,206.866,0,0,1,380.049,89.141a190.612,190.612,0,0,0-11.507,17.3c-21.483,36.368-34.233,83.3-36.471,133.559H272Zm0,414.782V272h60.071c2.238,50.257,14.988,97.191,36.471,133.559a190.612,190.612,0,0,0,11.507,17.3A206.866,206.866,0,0,1,272,463.391ZM404.239,401.75q-4.21-5.824-8.145-12.466C377.431,357.691,366.271,316.519,364.109,272h99.282A207.386,207.386,0,0,1,404.239,401.75ZM364.109,240c2.162-44.519,13.322-85.691,31.985-117.284q3.925-6.646,8.145-12.466A207.386,207.386,0,0,1,463.391,240Z" class="ci-primary"/>
</svg>

<svg viewBox="0 0 512 512" xmlns="http://www.w3.org/2000/svg"><path d="M256 16v0C123.45 15.99 15.99 123.45 15.99 255.99c-.01 63.65 25.28 124.69 70.29 169.7h0c93.72 93.72 245.68 93.72 339.41-.001 93.72-93.73 93.72-245.69 0-339.42v-.001c-44.92-45.16-106.02-70.47-169.71-70.3Zm-148.24 94.25q4.21 5.82 8.14 12.46c18.66 31.59 29.82 72.76 31.98 117.28H48.59l0-.001c3.76-48.89 24.71-94.86 59.15-129.75Zm-.001 291.5h0c-34.44-34.9-55.4-80.87-59.16-129.75h99.28c-2.17 44.51-13.33 85.69-31.985 117.28q-3.93 6.64-8.15 12.46Zm132.23 61.64h0c-39.14-2.99-76.61-17.05-108.05-40.54h0c4.14-5.56 7.98-11.33 11.5-17.3 21.48-36.37 34.23-83.3 36.47-133.56h60.071Zm0-223.4H179.91c-2.24-50.26-14.988-97.191-36.48-133.559v0c-3.52-5.98-7.36-11.75-11.51-17.3l-.001 0c31.44-23.49 68.91-37.55 108.04-40.54Zm32-191.391v0c39.13 2.98 76.6 17.04 108.04 40.53v-.001c-4.15 5.55-7.99 11.32-11.51 17.3 -21.49 36.36-34.24 83.3-36.48 133.559h-60.08Zm0 414.78v-191.4h60.07c2.23 50.25 14.988 97.19 36.47 133.55v0c3.51 5.97 7.35 11.74 11.5 17.3h-.001c-31.45 23.48-68.92 37.54-108.05 40.53Zm132.23-61.65q-4.21-5.83-8.15-12.47c-18.67-31.6-29.83-72.77-31.99-117.29h99.28 0c-3.77 48.88-24.72 94.85-59.16 129.75Zm-40.13-161.75c2.16-44.52 13.32-85.691 31.98-117.284q3.92-6.65 8.14-12.47v0c34.43 34.89 55.39 80.86 59.15 129.75Z"/></svg>
